X: 100119
M: C|
L: 1/8
K: A
uE2 |\
|: u(G>A) |\
(3BGE (3cAF (3dBG (3ecA | (3fdB (3gec a2(g>f) | (3eag (3fed (3cfe (3dcB | (3AGF (3EFG A2 :|


